X:1
T:The Tale of a Wife
M:9/4
L:1/4
K:Bb
 f| g3/2 a/2 b b3/2 c'/2 b b2 f| g3/2 a/2 b b3/2 c'/2 d' e'2 e'| g3/2 f/2 e e2 f g3/2 a/2 b|\
 c'2 b a2 g f2 f| g3/2 a/2 b b3/2 c'/2 b b2 f| g3/2 a/2 b b3/2 c'/2 d' e'2 e'|\
 g3/2 f/2 e e2 f g3/2 a/2 b| c'2 b a2 g f2||

